svg/nature/campfire_fill.svg

<svg xmlns="http://www.w3.org/2000/svg" width="24" height="24" viewBox="0 0 24 24"><g fill="none" fill-rule="evenodd"><path d="M24,0 L24,24 L0,24 L0,0 L24,0 Z M12.5935,23.2578 L12.5819,23.2595 L12.5109,23.295 L12.4919,23.2987 L12.4767,23.295 L12.4057,23.2595 C12.3958,23.2564 12.387,23.259 12.3821,23.2649 L12.378,23.2758 L12.3609,23.7031 L12.3659,23.7235 L12.3769,23.7357 L12.4805,23.8097 L12.4953,23.8136 L12.5071,23.8097 L12.6107,23.7357 L12.6233,23.7197 L12.6267,23.7031 L12.6096,23.2758 C12.6076,23.2657 12.601,23.2593 12.5935,23.2578 Z M12.8584,23.1453 L12.8445,23.1473 L12.6598,23.2397 L12.6499,23.2499 L12.6472,23.2611 L12.6651,23.6906 L12.6699,23.7034 L12.6784,23.7105 L12.8793,23.8032 C12.8914,23.8069 12.9022,23.803 12.9078,23.7952 L12.9118,23.7812 L12.8777,23.1665 C12.8753,23.1546 12.8674,23.147 12.8584,23.1453 Z M12.143,23.1473 C12.1332,23.1424 12.1222,23.1453 12.1156,23.1526 L12.1099,23.1665 L12.0758,23.7812 C12.0751,23.7927 12.0828,23.8019 12.0926,23.8046 L12.1083,23.8032 L12.3092,23.7105 L12.3186,23.7024 L12.3225,23.6906 L12.3404,23.2611 L12.3372,23.2485 L12.3278,23.2397 L12.143,23.1473 Z"/><path fill="#09244B" d="M18.6637,15.0583 C19.1838,14.8725 19.756,15.1436 19.9418,15.6637 C20.1142357,16.14665 19.8928842,16.674523 19.4439616,16.8961512 L19.3364,16.9417 L14.9732,18.5 L19.3364,20.0583 C19.8565,20.244 20.1275,20.8162 19.9418,21.3363 C19.7692714,21.81925 19.2635714,22.087501 18.7757876,21.9745967 L18.6637,21.9417 L12,19.5619 L5.33636,21.9417 C4.81626,22.1275 4.24404,21.8564 4.05829,21.3363 C3.88579857,20.85335 4.10718923,20.325477 4.55612571,20.1038488 L4.66369,20.0583 L9.02681,18.5 L4.66369,16.9417 C4.14358,16.756 3.87253,16.1838 4.05829,15.6637 C4.23077214,15.18075 4.73648607,14.912499 5.22427208,15.0254033 L5.33636,15.0583 L12,17.4381 L18.6637,15.0583 Z M11.231241,2.89189872 L11.9375025,2.43173694 L11.9375025,2.43173694 L12.1588495,2.29898936 C12.6473581,2.02193211 13.1875059,1.83889706 13.6552,2.24452 C13.9348444,2.48700889 14.0279407,2.82778914 13.9781739,3.17463753 L13.9384131,3.37989233 L13.9384131,3.37989233 L13.9234784,3.51978866 C13.9182735,3.60410265 13.9182429,3.70858714 13.9314,3.82704 C14.0170615,4.59819692 14.5419657,5.14923834 15.0857924,5.64810352 L15.5429407,6.06380818 L15.5429407,6.06380818 L15.884537,6.38673096 C16.6974185,7.17857691 17.5925111,8.24684 17.9702,9.75744 C18.4235,11.5708 17.9757,13.198 16.7884,14.3444 C15.6408,15.4524 13.9213,16 12,16 C8.83102,16 6.00003,13.948 6.00003,10.5 C6.00003,7.80354 7.78177,5.67468 9.34152,4.3099 C9.937984,3.788028 10.5754208,3.3294392 11.231241,2.89189872 Z M12.2214113,9.26384875 L12,9 L12,9 L11.7785887,9.26384875 L11.7785887,9.26384875 L11.5416786,9.56543008 L11.5416786,9.56543008 L11.3550371,9.81654138 L11.3550371,9.81654138 L11.1546189,10.1011927 C10.608799,10.9000265 10,11.9971414 10,12.9167 C10,14.0673 10.8955,15 12,15 C13.1046,15 14,14.0673 14,12.9167 C14,11.9971414 13.391201,10.9000265 12.8453811,10.1011927 L12.6449629,9.81654138 L12.6449629,9.81654138 L12.4583214,9.56543008 L12.4583214,9.56543008 L12.2214113,9.26384875 L12.2214113,9.26384875 Z"/></g></svg>

<svg xmlns="http://www.w3.org/2000/svg" width="24" height="24"><g fill="none" fill-rule="evenodd"><path d="M24 0v24H0V0zM12.594 23.258l-.012.002-.071.035-.02.004-.014-.004-.071-.036c-.01-.003-.019 0-.024.006l-.004.01-.017.428.005.02.01.013.104.074.015.004.012-.004.104-.074.012-.016.004-.017-.017-.427c-.002-.01-.009-.017-.016-.018m.264-.113-.014.002-.184.093-.01.01-.003.011.018.43.005.012.008.008.201.092c.012.004.023 0 .029-.008l.004-.014-.034-.614c-.003-.012-.01-.02-.02-.022m-.715.002a.023.023 0 0 0-.027.006l-.006.014-.034.614c0 .012.007.02.017.024l.015-.002.201-.093.01-.008.003-.011.018-.43-.003-.012-.01-.01z"/><path fill="#09244B" d="M18.664 15.058a1 1 0 0 1 .78 1.838l-.108.046-4.363 1.558 4.363 1.558a1 1 0 0 1-.56 1.917l-.112-.033L12 19.562l-6.664 2.38a1 1 0 0 1-.78-1.838l.108-.046L9.027 18.5l-4.363-1.558a1 1 0 0 1 .56-1.917l.112.033L12 17.438zM11.23 2.892l.707-.46.22-.133c.49-.277 1.03-.46 1.497-.054.28.242.373.583.323.93l-.04.205-.015.14c-.005.084-.005.189.008.307.086.771.611 1.322 1.155 1.821l.457.416.342.323c.812.792 1.708 1.86 2.085 3.37.454 1.814.006 3.441-1.182 4.587C15.641 15.452 13.921 16 12 16c-3.169 0-6-2.052-6-5.5 0-2.696 1.782-4.825 3.342-6.19a18.07 18.07 0 0 1 1.89-1.418m.99 6.372L12 9l-.221.264-.237.301-.187.252-.2.284C10.609 10.9 10 11.997 10 12.917c0 1.15.896 2.083 2 2.083 1.105 0 2-.933 2-2.083 0-.92-.609-2.017-1.155-2.816l-.2-.284-.187-.252z"/></g></svg>
